X: 54
T: 50. QUADRILLE AND HORNPIPE
B: Sam Bayard, "Hill Country Tunes" 1944 #50
S: Played by Robert Crow, Claysville, Washington County, PA, Sept 13, 1943.
N: Learned in that region.
Z: 2010 John Chambers <jc:trillian.mit.edu>
R: reel
M: 4/4
L: 1/8
K: D
D2- |\
D2^/FA d2F2 | "a."GBAG F2 ((3EFE) | DD^GA dAF[AD] | A,2A,2 A,2z2 |
D2FA dA "b."FD | G2"c."AF G2=cB | A2ff "d."ge^/cA | d2fe d2 || "e."((3efg) |
a2f2 d2ef | ^/ga^/gf e2"f."fg | a2f2 d2"g."gf | ed^/cB A2fg |
a2f2 d2ef | gagf e2a2- | a2 a4 g2 | ((3fgf) e2 Hd2 |]
P: Var:
"a."BB || "b."F2 || "c."{G}BB || "d."gece || "e."fg || "f."ff || "f."aa || "g"ff |]

%%sep 2 1 500
%%sep 1 1 500

